<?xml version="1.0" encoding="UTF-8"?>
<map version="1.10" tiledversion="1.10.2" orientation="orthogonal" renderorder="right-down" width="30" height="24" tilewidth="16" tileheight="16" infinite="0" nextlayerid="5" nextobjectid="2">
 <tileset firstgid="1" source="dungeon_tiles.tsx"/>
 <tileset firstgid="553" source="dungeon_tiles2.tsx"/>
 <layer id="1" name="Floor Layer" width="30" height="24">
  <data encoding="csv">
681,682,683,684,685,686,681,682,683,684,685,686,681,682,683,684,685,686,681,682,683,684,685,686,681,682,683,684,685,686,
713,714,715,716,717,718,713,714,715,716,717,718,713,714,715,716,717,718,713,714,715,716,717,718,713,714,715,716,717,718,
745,746,747,748,749,750,745,746,747,748,749,750,745,746,747,748,749,750,745,746,747,748,749,750,745,746,747,748,749,750,
777,778,779,780,781,782,777,778,779,780,781,782,777,778,779,780,781,782,777,778,779,780,781,782,777,778,779,780,781,782,
809,810,811,812,813,814,809,810,811,812,813,814,809,810,811,812,813,814,809,810,811,812,813,814,809,810,811,812,813,814,
841,842,843,844,845,846,841,842,843,844,845,846,841,842,843,844,845,846,841,842,843,844,845,846,841,842,843,844,845,846,
681,682,683,684,685,686,681,682,683,684,685,686,681,682,683,684,685,686,681,682,683,684,685,686,681,682,683,684,685,686,
713,714,715,716,717,718,713,714,715,716,717,718,713,714,715,716,717,718,713,714,715,716,717,718,713,714,715,716,717,718,
745,746,747,748,749,750,745,746,747,748,749,750,745,746,747,748,749,750,745,746,747,748,749,750,745,746,747,748,749,750,
777,778,779,780,781,782,777,778,779,780,781,782,777,778,779,780,781,782,777,778,779,780,781,782,777,778,779,780,781,782,
809,810,811,812,813,814,809,810,811,812,813,814,809,810,811,812,813,814,809,810,811,812,813,814,809,810,811,812,813,814,
841,842,843,844,845,846,841,842,843,844,845,846,841,842,843,844,845,846,841,842,843,844,845,846,841,842,843,844,845,846,
681,682,683,684,685,686,681,682,683,684,685,686,681,682,683,684,685,686,681,682,683,684,685,686,681,682,683,684,685,686,
713,714,715,716,717,718,713,714,715,716,717,718,713,714,715,716,717,718,713,714,715,716,717,718,713,714,715,716,717,718,
745,746,747,748,749,750,745,746,747,748,749,750,745,746,747,748,749,750,745,746,747,748,749,750,745,746,747,748,749,750,
777,778,779,780,781,782,777,778,779,780,781,782,777,778,779,780,781,782,777,778,779,780,781,782,777,778,779,780,781,782,
809,810,811,812,813,814,809,810,811,812,813,814,809,810,811,812,813,814,809,810,811,812,813,814,809,810,811,812,813,814,
841,842,843,844,845,846,841,842,843,844,845,846,841,842,843,844,845,846,841,842,843,844,845,846,841,842,843,844,845,846,
681,682,683,684,685,686,681,682,683,684,685,686,681,682,683,684,685,686,681,682,683,684,685,686,681,682,683,684,685,686,
713,714,715,716,717,718,713,714,715,716,717,718,713,714,715,716,717,718,713,714,715,716,717,718,713,714,715,716,717,718,
745,746,747,748,749,750,745,746,747,748,749,750,745,746,747,748,749,750,745,746,747,748,749,750,745,746,747,748,749,750,
777,778,779,780,781,782,777,778,779,780,781,782,777,778,779,780,781,782,777,778,779,780,781,782,777,778,779,780,781,782,
809,810,811,812,813,814,809,810,811,812,813,814,809,810,811,812,813,814,809,810,811,812,813,814,809,810,811,812,813,814,
841,842,843,844,845,846,841,842,843,844,845,846,841,842,843,844,845,846,841,842,843,844,845,846,841,842,843,844,845,846
</data>
 </layer>
 <layer id="2" name="Fountain Layer" width="30" height="24">
  <data encoding="csv">
0,0,0,0,0,0,0,0,0,0,0,0,0,0,0,0,0,0,0,0,0,0,0,0,0,0,0,0,0,0,
0,0,0,0,0,0,0,0,0,0,0,0,0,0,0,0,0,0,0,0,0,0,0,0,0,0,0,0,0,0,
0,0,0,0,0,0,0,0,0,0,0,0,0,0,0,0,0,0,0,0,0,0,0,0,0,0,0,0,0,0,
0,0,0,0,0,0,0,0,0,0,0,0,0,0,0,0,0,0,0,0,0,0,0,0,0,0,0,0,0,0,
0,0,0,0,0,0,0,0,0,0,0,0,0,0,0,0,0,0,0,0,0,0,0,0,0,0,0,0,0,0,
0,0,0,0,0,0,0,0,0,0,0,0,0,0,0,0,0,0,0,0,0,0,0,0,0,0,0,0,0,0,
0,0,0,0,0,0,0,0,0,0,0,0,0,0,0,0,0,0,0,0,0,0,0,0,0,0,0,0,0,0,
0,0,0,0,0,0,0,0,0,0,0,0,0,0,0,0,0,0,0,0,0,0,0,0,0,0,0,0,0,0,
0,0,0,0,0,0,0,0,0,0,0,0,0,0,0,0,0,0,0,0,0,0,0,0,0,0,0,0,0,0,
0,0,0,0,0,0,0,0,0,0,0,0,0,0,0,0,0,0,0,0,0,0,0,0,0,0,0,0,0,0,
0,0,0,0,0,0,0,0,0,0,0,0,0,553,554,555,556,0,0,0,0,0,0,0,0,0,0,0,0,0,
0,0,0,0,0,0,0,0,0,0,0,0,0,585,586,587,588,0,0,0,0,0,0,0,0,0,0,0,0,0,
0,0,0,0,0,0,0,0,0,0,0,0,0,617,618,619,620,0,0,0,0,0,0,0,0,0,0,0,0,0,
0,0,0,0,0,0,0,0,0,0,0,0,0,649,650,651,652,0,0,0,0,0,0,0,0,0,0,0,0,0,
0,0,0,0,0,0,0,0,0,0,0,0,0,0,0,0,0,0,0,0,0,0,0,0,0,0,0,0,0,0,
0,0,0,0,0,0,0,0,0,0,0,0,0,0,0,0,0,0,0,0,0,0,0,0,0,0,0,0,0,0,
0,0,0,0,0,0,0,0,0,0,0,0,0,0,0,0,0,0,0,0,0,0,0,0,0,0,0,0,0,0,
0,0,0,0,0,0,0,0,0,0,0,0,0,0,0,0,0,0,0,0,0,0,0,0,0,0,0,0,0,0,
0,0,0,0,0,0,0,0,0,0,0,0,0,0,0,0,0,0,0,0,0,0,0,0,0,0,0,0,0,0,
0,0,0,0,0,0,0,0,0,0,0,0,0,0,0,0,0,0,0,0,0,0,0,0,0,0,0,0,0,0,
0,0,0,0,0,0,0,0,0,0,0,0,0,0,0,0,0,0,0,0,0,0,0,0,0,0,0,0,0,0,
0,0,0,0,0,0,0,0,0,0,0,0,0,0,0,0,0,0,0,0,0,0,0,0,0,0,0,0,0,0,
0,0,0,0,0,0,0,0,0,0,0,0,0,0,0,0,0,0,0,0,0,0,0,0,0,0,0,0,0,0,
0,0,0,0,0,0,0,0,0,0,0,0,0,0,0,0,0,0,0,0,0,0,0,0,0,0,0,0,0,0
</data>
 </layer>
 <objectgroup id="3" name="Circle Colliders">
  <object id="1" x="208" y="176" width="64" height="48">
   <ellipse/>
  </object>
 </objectgroup>
 <objectgroup id="4" name="Rectangle Colliders"/>
</map>
